public/images/hausbuddy-blue-yellow.svg

<svg clip-rule="evenodd" fill-rule="evenodd" stroke-linejoin="round" stroke-miterlimit="2" viewBox="0 0 500 272" xmlns="http://www.w3.org/2000/svg" xmlns:xlink="http://www.w3.org/1999/xlink"><linearGradient id="a" gradientTransform="matrix(84.861 157.208 -157.208 84.861 220.518 126.419)" gradientUnits="userSpaceOnUse" x1="0" x2="1" y1="0" y2="0"><stop offset="0" stop-color="#295da6"/><stop offset="1" stop-color="#ffc936"/></linearGradient><g fill="url(#a)" fill-rule="nonzero" transform="matrix(1.89891 0 -0 1.89891 -217.271 -157.506)"><path d="m114.322 142.928v-60.03h14.966v34.209h-1.973c0-4.605.575-8.47 1.726-11.595 1.152-3.125 2.837-5.482 5.058-7.072 2.22-1.59 4.975-2.385 8.264-2.385h.658c4.934 0 8.703 1.782 11.307 5.345 2.604 3.564 3.906 8.799 3.906 15.707v25.821h-14.966v-26.397c0-2.083-.631-3.796-1.892-5.14-1.261-1.343-2.933-2.014-5.016-2.014s-3.783.671-5.098 2.014c-1.316 1.344-1.974 3.112-1.974 5.304v26.233z"/><path d="m194.416 142.928v-13.322h-2.467v-14.226c0-2.084-.479-3.632-1.439-4.646-.959-1.015-2.535-1.522-4.728-1.522-1.042 0-2.577.028-4.605.082-2.028.055-4.166.138-6.414.247-2.248.11-4.304.219-6.168.329v-12.499c1.316-.11 2.879-.22 4.688-.329 1.809-.11 3.686-.192 5.633-.247 1.946-.055 3.741-.082 5.386-.082 4.66 0 8.621.685 11.882 2.056 3.262 1.37 5.757 3.426 7.484 6.167s2.59 6.222 2.59 10.444v27.548zm-14.39 1.151c-3.18 0-6.003-.576-8.47-1.727s-4.4-2.81-5.798-4.975c-1.398-2.166-2.097-4.756-2.097-7.771 0-3.399.905-6.154 2.714-8.264 1.809-2.111 4.304-3.66 7.483-4.647 3.18-.986 6.826-1.48 10.937-1.48h8.799v7.73h-8.799c-2.028 0-3.591.507-4.687 1.521-1.096 1.015-1.645 2.371-1.645 4.071 0 1.645.549 2.974 1.645 3.988s2.659 1.522 4.687 1.522c1.316 0 2.481-.233 3.495-.699s1.85-1.275 2.508-2.426c.658-1.152 1.042-2.741 1.151-4.77l3.454 3.289c-.274 3.125-1.028 5.77-2.261 7.936-1.234 2.165-2.933 3.824-5.099 4.975-2.165 1.151-4.838 1.727-8.017 1.727z"/><path d="m229.448 144.408c-5.154 0-9.142-1.686-11.965-5.057-2.824-3.372-4.235-8.539-4.235-15.501v-26.315h14.966v26.726c0 2.028.603 3.673 1.809 4.934s2.824 1.891 4.852 1.891 3.673-.63 4.934-1.891 1.891-2.961 1.891-5.099v-26.561h14.967v45.393h-11.842v-19.078h.822c0 4.66-.589 8.511-1.768 11.553-1.178 3.043-2.919 5.304-5.221 6.785-2.303 1.48-5.154 2.22-8.553 2.22z"/><path d="m283.886 144.408c-6.579 0-11.76-1.357-15.542-4.071-3.783-2.713-5.811-6.537-6.086-11.471h13.158c.219 1.37 1.069 2.549 2.549 3.536s3.563 1.48 6.25 1.48c1.918 0 3.577-.288 4.975-.863 1.398-.576 2.097-1.522 2.097-2.837 0-1.152-.549-2.097-1.645-2.837-1.097-.741-3.097-1.248-6.003-1.522l-3.125-.329c-5.811-.603-10.087-2.193-12.828-4.769-2.741-2.577-4.112-5.811-4.112-9.704 0-3.344.822-6.099 2.467-8.264s3.92-3.796 6.825-4.893c2.906-1.096 6.223-1.645 9.951-1.645 6.085 0 10.991 1.33 14.719 3.989s5.702 6.482 5.921 11.471h-13.157c-.219-1.37-.96-2.535-2.22-3.495-1.261-.959-3.071-1.439-5.428-1.439-1.699 0-3.084.302-4.153.905s-1.603 1.453-1.603 2.549c0 1.151.507 2.001 1.521 2.549s2.645.96 4.893 1.234l3.125.329c5.811.603 10.293 2.206 13.445 4.81s4.728 6.017 4.728 10.238c0 3.125-.836 5.811-2.508 8.059s-4.057 3.975-7.154 5.181-6.784 1.809-11.06 1.809z"/><path d="m143.597 209.182c-3.728 0-6.976-.768-9.745-2.303-2.768-1.535-4.934-3.782-6.496-6.743-1.563-2.96-2.399-6.578-2.508-10.854h1.315v18.42h-11.841v-60.03h14.966v30.919l-3.289 3.29c.164-4.441 1.014-8.224 2.549-11.348 1.535-3.125 3.659-5.496 6.373-7.114 2.714-1.617 5.852-2.425 9.416-2.425 3.07 0 5.838.561 8.305 1.685s4.564 2.714 6.291 4.77 3.056 4.481 3.988 7.277 1.398 5.866 1.398 9.21v1.974c0 3.344-.466 6.428-1.398 9.251-.932 2.824-2.302 5.291-4.111 7.401-1.809 2.111-3.989 3.742-6.538 4.893s-5.441 1.727-8.675 1.727zm-4.276-12.335c1.973 0 3.714-.507 5.221-1.521 1.508-1.015 2.687-2.426 3.536-4.235.85-1.809 1.275-3.865 1.275-6.168 0-2.357-.425-4.399-1.275-6.126-.849-1.727-2.014-3.07-3.495-4.029-1.48-.96-3.234-1.44-5.262-1.44-1.81 0-3.495.412-5.058 1.234-1.562.822-2.837 2.028-3.824 3.618-.986 1.59-1.48 3.509-1.48 5.756v2.796c0 2.138.521 3.961 1.563 5.469 1.041 1.507 2.357 2.659 3.947 3.454s3.207 1.192 4.852 1.192z"/><path d="m186.193 209.182c-5.153 0-9.141-1.686-11.965-5.057-2.823-3.372-4.235-8.539-4.235-15.501v-26.315h14.967v26.726c0 2.028.603 3.673 1.809 4.934s2.823 1.891 4.852 1.891c2.028 0 3.673-.63 4.934-1.891 1.26-1.261 1.891-2.961 1.891-5.099v-26.561h14.966v45.393h-11.841v-19.078h.822c0 4.66-.589 8.511-1.768 11.553-1.179 3.043-2.919 5.304-5.222 6.785-2.302 1.48-5.153 2.22-8.552 2.22z"/><path d="m241.289 209.182c-3.18 0-6.071-.576-8.675-1.727s-4.852-2.755-6.744-4.811c-1.891-2.055-3.344-4.481-4.358-7.277s-1.521-5.839-1.521-9.128v-1.974c0-3.289.48-6.345 1.439-9.169.959-2.823 2.344-5.29 4.153-7.401 1.809-2.11 4.002-3.755 6.578-4.933 2.577-1.179 5.455-1.768 8.635-1.768 3.673 0 6.811.808 9.415 2.425 2.604 1.618 4.605 3.961 6.003 7.031s2.152 6.798 2.262 11.184l-3.454-2.549v-31.413h14.966v60.03h-11.841v-18.42h1.644c-.109 4.056-.932 7.579-2.467 10.566-1.535 2.988-3.659 5.291-6.373 6.908-2.713 1.617-5.934 2.426-9.662 2.426zm4.03-12.335c1.809 0 3.467-.411 4.975-1.233 1.507-.823 2.727-2.029 3.659-3.619s1.398-3.508 1.398-5.756v-2.796c0-2.193-.48-4.029-1.439-5.51-.96-1.48-2.193-2.617-3.701-3.412-1.507-.795-3.138-1.193-4.892-1.193-1.974 0-3.742.508-5.305 1.522-1.562 1.014-2.795 2.412-3.7 4.194-.905 1.781-1.357 3.851-1.357 6.208 0 2.358.452 4.4 1.357 6.127.905 1.726 2.138 3.07 3.7 4.029 1.563.959 3.331 1.439 5.305 1.439z"/><path d="m297.947 209.182c-3.179 0-6.071-.576-8.675-1.727s-4.852-2.755-6.743-4.811c-1.892-2.055-3.344-4.481-4.359-7.277-1.014-2.796-1.521-5.839-1.521-9.128v-1.974c0-3.289.48-6.345 1.439-9.169.96-2.823 2.344-5.29 4.153-7.401 1.809-2.11 4.002-3.755 6.579-4.933 2.576-1.179 5.454-1.768 8.634-1.768 3.673 0 6.812.808 9.416 2.425 2.604 1.618 4.605 3.961 6.003 7.031s2.151 6.798 2.261 11.184l-3.454-2.549v-31.413h14.967v60.03h-11.842v-18.42h1.645c-.11 4.056-.932 7.579-2.467 10.566-1.535 2.988-3.66 5.291-6.373 6.908-2.714 1.617-5.935 2.426-9.663 2.426zm4.03-12.335c1.809 0 3.467-.411 4.975-1.233 1.508-.823 2.727-2.029 3.659-3.619s1.398-3.508 1.398-5.756v-2.796c0-2.193-.479-4.029-1.439-5.51-.959-1.48-2.193-2.617-3.7-3.412-1.508-.795-3.139-1.193-4.893-1.193-1.974 0-3.742.508-5.304 1.522-1.563 1.014-2.796 2.412-3.701 4.194-.904 1.781-1.356 3.851-1.356 6.208 0 2.358.452 4.4 1.356 6.127.905 1.726 2.138 3.07 3.701 4.029 1.562.959 3.33 1.439 5.304 1.439z"/><path d="m336.268 225.793v-12.499h10.443c1.261 0 2.33-.165 3.208-.494.877-.329 1.589-.863 2.138-1.603.548-.74.959-1.768 1.233-3.084l10.197-45.804h14.144l-11.924 48.682c-.877 3.728-2.097 6.675-3.659 8.84-1.563 2.165-3.701 3.701-6.414 4.605-2.714.905-6.236 1.357-10.567 1.357zm14.391-19.078v-11.513h9.539v11.513zm-6.908 0-13.239-44.406h14.966l12.417 44.406z"/></g></svg>

<?xml version="1.0" encoding="UTF-8" standalone="no"?>
<!DOCTYPE svg PUBLIC "-//W3C//DTD SVG 1.1//EN" "http://www.w3.org/Graphics/SVG/1.1/DTD/svg11.dtd">
<svg width="100%" height="100%" viewBox="0 0 500 272" version="1.1" xmlns="http://www.w3.org/2000/svg" xmlns:xlink="http://www.w3.org/1999/xlink" xml:space="preserve" xmlns:serif="http://www.serif.com/" style="fill-rule:evenodd;clip-rule:evenodd;stroke-linejoin:round;stroke-miterlimit:2;">
    <g transform="matrix(1.89891,4.65098e-16,-4.65098e-16,1.89891,-217.271,-157.506)">
        <path d="M114.322,142.928L114.322,82.898L129.288,82.898L129.288,117.107L127.315,117.107C127.315,112.502 127.89,108.637 129.041,105.512C130.193,102.387 131.878,100.03 134.099,98.44C136.319,96.85 139.074,96.055 142.363,96.055L143.021,96.055C147.955,96.055 151.724,97.837 154.328,101.4C156.932,104.964 158.234,110.199 158.234,117.107L158.234,142.928L143.268,142.928L143.268,116.531C143.268,114.448 142.637,112.735 141.376,111.391C140.115,110.048 138.443,109.377 136.36,109.377C134.277,109.377 132.577,110.048 131.262,111.391C129.946,112.735 129.288,114.503 129.288,116.695L129.288,142.928L114.322,142.928Z" style="fill:url(#_Linear1);fill-rule:nonzero;"/>
        <path d="M194.416,142.928L194.416,129.606L191.949,129.606L191.949,115.38C191.949,113.296 191.47,111.748 190.51,110.734C189.551,109.719 187.975,109.212 185.782,109.212C184.74,109.212 183.205,109.24 181.177,109.294C179.149,109.349 177.011,109.432 174.763,109.541C172.515,109.651 170.459,109.76 168.595,109.87L168.595,97.371C169.911,97.261 171.474,97.151 173.283,97.042C175.092,96.932 176.969,96.85 178.916,96.795C180.862,96.74 182.657,96.713 184.302,96.713C188.962,96.713 192.923,97.398 196.184,98.769C199.446,100.139 201.941,102.195 203.668,104.936C205.395,107.677 206.258,111.158 206.258,115.38L206.258,142.928L194.416,142.928ZM180.026,144.079C176.846,144.079 174.023,143.503 171.556,142.352C169.089,141.201 167.156,139.542 165.758,137.377C164.36,135.211 163.661,132.621 163.661,129.606C163.661,126.207 164.566,123.452 166.375,121.342C168.184,119.231 170.679,117.682 173.858,116.695C177.038,115.709 180.684,115.215 184.795,115.215L193.594,115.215L193.594,122.945L184.795,122.945C182.767,122.945 181.204,123.452 180.108,124.466C179.012,125.481 178.463,126.837 178.463,128.537C178.463,130.182 179.012,131.511 180.108,132.525C181.204,133.539 182.767,134.047 184.795,134.047C186.111,134.047 187.276,133.814 188.29,133.348C189.304,132.882 190.14,132.073 190.798,130.922C191.456,129.77 191.84,128.181 191.949,126.152L195.403,129.441C195.129,132.566 194.375,135.211 193.142,137.377C191.908,139.542 190.209,141.201 188.043,142.352C185.878,143.503 183.205,144.079 180.026,144.079Z" style="fill:url(#_Linear2);fill-rule:nonzero;"/>
        <path d="M229.448,144.408C224.294,144.408 220.306,142.722 217.483,139.351C214.659,135.979 213.248,130.812 213.248,123.85L213.248,97.535L228.214,97.535L228.214,124.261C228.214,126.289 228.817,127.934 230.023,129.195C231.229,130.456 232.847,131.086 234.875,131.086C236.903,131.086 238.548,130.456 239.809,129.195C241.07,127.934 241.7,126.234 241.7,124.096L241.7,97.535L256.667,97.535L256.667,142.928L244.825,142.928L244.825,123.85L245.647,123.85C245.647,128.51 245.058,132.361 243.879,135.403C242.701,138.446 240.96,140.707 238.658,142.188C236.355,143.668 233.504,144.408 230.105,144.408L229.448,144.408Z" style="fill:url(#_Linear3);fill-rule:nonzero;"/>
        <path d="M283.886,144.408C277.307,144.408 272.126,143.051 268.344,140.337C264.561,137.624 262.533,133.8 262.258,128.866L275.416,128.866C275.635,130.236 276.485,131.415 277.965,132.402C279.445,133.389 281.528,133.882 284.215,133.882C286.133,133.882 287.792,133.594 289.19,133.019C290.588,132.443 291.287,131.497 291.287,130.182C291.287,129.03 290.738,128.085 289.642,127.345C288.545,126.604 286.545,126.097 283.639,125.823L280.514,125.494C274.703,124.891 270.427,123.301 267.686,120.725C264.945,118.148 263.574,114.914 263.574,111.021C263.574,107.677 264.396,104.922 266.041,102.757C267.686,100.592 269.961,98.961 272.866,97.864C275.772,96.768 279.089,96.219 282.817,96.219C288.902,96.219 293.808,97.549 297.536,100.208C301.264,102.867 303.238,106.69 303.457,111.679L290.3,111.679C290.081,110.309 289.34,109.144 288.08,108.184C286.819,107.225 285.009,106.745 282.652,106.745C280.953,106.745 279.568,107.047 278.499,107.65C277.43,108.253 276.896,109.103 276.896,110.199C276.896,111.35 277.403,112.2 278.417,112.748C279.431,113.296 281.062,113.708 283.31,113.982L286.435,114.311C292.246,114.914 296.728,116.517 299.88,119.121C303.032,121.725 304.608,125.138 304.608,129.359C304.608,132.484 303.772,135.17 302.1,137.418C300.428,139.666 298.043,141.393 294.946,142.599C291.849,143.805 288.162,144.408 283.886,144.408Z" style="fill:url(#_Linear4);fill-rule:nonzero;"/>
        <path d="M143.597,209.182C139.869,209.182 136.621,208.414 133.852,206.879C131.084,205.344 128.918,203.097 127.356,200.136C125.793,197.176 124.957,193.558 124.848,189.282L126.163,189.282L126.163,207.702L114.322,207.702L114.322,147.672L129.288,147.672L129.288,178.591L125.999,181.881C126.163,177.44 127.013,173.657 128.548,170.533C130.083,167.408 132.207,165.037 134.921,163.419C137.635,161.802 140.773,160.994 144.337,160.994C147.407,160.994 150.175,161.555 152.642,162.679C155.109,163.803 157.206,165.393 158.933,167.449C160.66,169.505 161.989,171.93 162.921,174.726C163.853,177.522 164.319,180.592 164.319,183.936L164.319,185.91C164.319,189.254 163.853,192.338 162.921,195.161C161.989,197.985 160.619,200.452 158.81,202.562C157.001,204.673 154.821,206.304 152.272,207.455C149.723,208.606 146.831,209.182 143.597,209.182ZM139.321,196.847C141.294,196.847 143.035,196.34 144.542,195.326C146.05,194.311 147.229,192.9 148.078,191.091C148.928,189.282 149.353,187.226 149.353,184.923C149.353,182.566 148.928,180.524 148.078,178.797C147.229,177.07 146.064,175.727 144.583,174.768C143.103,173.808 141.349,173.328 139.321,173.328C137.511,173.328 135.826,173.74 134.263,174.562C132.701,175.384 131.426,176.59 130.439,178.18C129.453,179.77 128.959,181.689 128.959,183.936L128.959,186.732C128.959,188.87 129.48,190.693 130.522,192.201C131.563,193.708 132.879,194.86 134.469,195.655C136.059,196.45 137.676,196.847 139.321,196.847Z" style="fill:url(#_Linear5);fill-rule:nonzero;"/>
        <path d="M186.193,209.182C181.04,209.182 177.052,207.496 174.228,204.125C171.405,200.753 169.993,195.586 169.993,188.624L169.993,162.309L184.96,162.309L184.96,189.035C184.96,191.063 185.563,192.708 186.769,193.969C187.975,195.23 189.592,195.86 191.621,195.86C193.649,195.86 195.294,195.23 196.555,193.969C197.815,192.708 198.446,191.008 198.446,188.87L198.446,162.309L213.412,162.309L213.412,207.702L201.571,207.702L201.571,188.624L202.393,188.624C202.393,193.284 201.804,197.135 200.625,200.177C199.446,203.22 197.706,205.481 195.403,206.962C193.101,208.442 190.25,209.182 186.851,209.182L186.193,209.182Z" style="fill:url(#_Linear6);fill-rule:nonzero;"/>
        <path d="M241.289,209.182C238.109,209.182 235.218,208.606 232.614,207.455C230.01,206.304 227.762,204.7 225.87,202.644C223.979,200.589 222.526,198.163 221.512,195.367C220.498,192.571 219.991,189.528 219.991,186.239L219.991,184.265C219.991,180.976 220.471,177.92 221.43,175.096C222.389,172.273 223.774,169.806 225.583,167.695C227.392,165.585 229.585,163.94 232.161,162.762C234.738,161.583 237.616,160.994 240.796,160.994C244.469,160.994 247.607,161.802 250.211,163.419C252.815,165.037 254.816,167.38 256.214,170.45C257.612,173.52 258.366,177.248 258.476,181.634L255.022,179.085L255.022,147.672L269.988,147.672L269.988,207.702L258.147,207.702L258.147,189.282L259.791,189.282C259.682,193.338 258.859,196.861 257.324,199.848C255.789,202.836 253.665,205.139 250.951,206.756C248.238,208.373 245.017,209.182 241.289,209.182ZM245.319,196.847C247.128,196.847 248.786,196.436 250.294,195.614C251.801,194.791 253.021,193.585 253.953,191.995C254.885,190.405 255.351,188.487 255.351,186.239L255.351,183.443C255.351,181.25 254.871,179.414 253.912,177.933C252.952,176.453 251.719,175.316 250.211,174.521C248.704,173.726 247.073,173.328 245.319,173.328C243.345,173.328 241.577,173.836 240.014,174.85C238.452,175.864 237.219,177.262 236.314,179.044C235.409,180.825 234.957,182.895 234.957,185.252C234.957,187.61 235.409,189.652 236.314,191.379C237.219,193.105 238.452,194.449 240.014,195.408C241.577,196.367 243.345,196.847 245.319,196.847Z" style="fill:url(#_Linear7);fill-rule:nonzero;"/>
        <path d="M297.947,209.182C294.768,209.182 291.876,208.606 289.272,207.455C286.668,206.304 284.42,204.7 282.529,202.644C280.637,200.589 279.185,198.163 278.17,195.367C277.156,192.571 276.649,189.528 276.649,186.239L276.649,184.265C276.649,180.976 277.129,177.92 278.088,175.096C279.048,172.273 280.432,169.806 282.241,167.695C284.05,165.585 286.243,163.94 288.82,162.762C291.396,161.583 294.274,160.994 297.454,160.994C301.127,160.994 304.266,161.802 306.87,163.419C309.474,165.037 311.475,167.38 312.873,170.45C314.271,173.52 315.024,177.248 315.134,181.634L311.68,179.085L311.68,147.672L326.647,147.672L326.647,207.702L314.805,207.702L314.805,189.282L316.45,189.282C316.34,193.338 315.518,196.861 313.983,199.848C312.448,202.836 310.323,205.139 307.61,206.756C304.896,208.373 301.675,209.182 297.947,209.182ZM301.977,196.847C303.786,196.847 305.444,196.436 306.952,195.614C308.46,194.791 309.679,193.585 310.611,191.995C311.543,190.405 312.009,188.487 312.009,186.239L312.009,183.443C312.009,181.25 311.53,179.414 310.57,177.933C309.611,176.453 308.377,175.316 306.87,174.521C305.362,173.726 303.731,173.328 301.977,173.328C300.003,173.328 298.235,173.836 296.673,174.85C295.11,175.864 293.877,177.262 292.972,179.044C292.068,180.825 291.616,182.895 291.616,185.252C291.616,187.61 292.068,189.652 292.972,191.379C293.877,193.105 295.11,194.449 296.673,195.408C298.235,196.367 300.003,196.847 301.977,196.847Z" style="fill:url(#_Linear8);fill-rule:nonzero;"/>
        <path d="M336.268,225.793L336.268,213.294L346.711,213.294C347.972,213.294 349.041,213.129 349.919,212.8C350.796,212.471 351.508,211.937 352.057,211.197C352.605,210.457 353.016,209.429 353.29,208.113L363.487,162.309L377.631,162.309L365.707,210.991C364.83,214.719 363.61,217.666 362.048,219.831C360.485,221.996 358.347,223.532 355.634,224.436C352.92,225.341 349.398,225.793 345.067,225.793L336.268,225.793ZM350.659,206.715L350.659,195.202L360.198,195.202L360.198,206.715L350.659,206.715ZM343.751,206.715L330.512,162.309L345.478,162.309L357.895,206.715L343.751,206.715Z" style="fill:url(#_Linear9);fill-rule:nonzero;"/>
    </g>
    <defs>
        <linearGradient id="_Linear1" x1="0" y1="0" x2="1" y2="0" gradientUnits="userSpaceOnUse" gradientTransform="matrix(84.861,157.208,-157.208,84.861,220.518,126.419)"><stop offset="0" style="stop-color:rgb(41,93,166);stop-opacity:1"/><stop offset="1" style="stop-color:rgb(255,201,54);stop-opacity:1"/></linearGradient>
        <linearGradient id="_Linear2" x1="0" y1="0" x2="1" y2="0" gradientUnits="userSpaceOnUse" gradientTransform="matrix(84.861,157.208,-157.208,84.861,220.518,126.419)"><stop offset="0" style="stop-color:rgb(41,93,166);stop-opacity:1"/><stop offset="1" style="stop-color:rgb(255,201,54);stop-opacity:1"/></linearGradient>
        <linearGradient id="_Linear3" x1="0" y1="0" x2="1" y2="0" gradientUnits="userSpaceOnUse" gradientTransform="matrix(84.861,157.208,-157.208,84.861,220.518,126.419)"><stop offset="0" style="stop-color:rgb(41,93,166);stop-opacity:1"/><stop offset="1" style="stop-color:rgb(255,201,54);stop-opacity:1"/></linearGradient>
        <linearGradient id="_Linear4" x1="0" y1="0" x2="1" y2="0" gradientUnits="userSpaceOnUse" gradientTransform="matrix(84.861,157.208,-157.208,84.861,220.518,126.419)"><stop offset="0" style="stop-color:rgb(41,93,166);stop-opacity:1"/><stop offset="1" style="stop-color:rgb(255,201,54);stop-opacity:1"/></linearGradient>
        <linearGradient id="_Linear5" x1="0" y1="0" x2="1" y2="0" gradientUnits="userSpaceOnUse" gradientTransform="matrix(84.861,157.208,-157.208,84.861,220.518,126.419)"><stop offset="0" style="stop-color:rgb(41,93,166);stop-opacity:1"/><stop offset="1" style="stop-color:rgb(255,201,54);stop-opacity:1"/></linearGradient>
        <linearGradient id="_Linear6" x1="0" y1="0" x2="1" y2="0" gradientUnits="userSpaceOnUse" gradientTransform="matrix(84.861,157.208,-157.208,84.861,220.518,126.419)"><stop offset="0" style="stop-color:rgb(41,93,166);stop-opacity:1"/><stop offset="1" style="stop-color:rgb(255,201,54);stop-opacity:1"/></linearGradient>
        <linearGradient id="_Linear7" x1="0" y1="0" x2="1" y2="0" gradientUnits="userSpaceOnUse" gradientTransform="matrix(84.861,157.208,-157.208,84.861,220.518,126.419)"><stop offset="0" style="stop-color:rgb(41,93,166);stop-opacity:1"/><stop offset="1" style="stop-color:rgb(255,201,54);stop-opacity:1"/></linearGradient>
        <linearGradient id="_Linear8" x1="0" y1="0" x2="1" y2="0" gradientUnits="userSpaceOnUse" gradientTransform="matrix(84.861,157.208,-157.208,84.861,220.518,126.419)"><stop offset="0" style="stop-color:rgb(41,93,166);stop-opacity:1"/><stop offset="1" style="stop-color:rgb(255,201,54);stop-opacity:1"/></linearGradient>
        <linearGradient id="_Linear9" x1="0" y1="0" x2="1" y2="0" gradientUnits="userSpaceOnUse" gradientTransform="matrix(84.861,157.208,-157.208,84.861,220.518,126.419)"><stop offset="0" style="stop-color:rgb(41,93,166);stop-opacity:1"/><stop offset="1" style="stop-color:rgb(255,201,54);stop-opacity:1"/></linearGradient>
    </defs>
</svg>
